X: 76
M: 6/8
L: 1/8
K: D
[|\
|:\
d2a (f/g/a)f | e2f ge=c | d2a f/g/af | d2a (f/g/a)f |\
gab fga | e2f gfe | dcB AFB | D2B AFD |]

